X: 1914
T: Uşşak Seyir
C: Erol Bingöl
O: Turkey
F: http://compmusic.upf.edu/node/140
N: ussak--seyir--sofyan--1--erol_bingol
N: makam= ussak
N: form= seyir
N: usul= sofyan = 4/4
M: 4/4
L: 1/16
K: C _2/4B   
Q: 1/4=72
%%MIDI tuningsystem comma53
G4 A4 A2c2 B2A2  | B3A G2^3/4F2 G8  | \
w:   |   | 
A3B c2d2 e2fg e2d2  | d3c B2c2 d8  | 
w:   |   | 
e2f4e2 a2g2 f2e2  | d3c dc_1/4B^A B4 z4  | \
w:   |   | 
c2d4f2 e2d2 c2B2  | 
w:   | 
d3c cBBA A8  | |


